packages/2019-disaster-game/assets/task_icons/injury.svg

<svg viewBox="0 0 444 444" fill="none" xmlns="http://www.w3.org/2000/svg">
<path d="M222 443.8C344.386 443.8 443.6 344.586 443.6 222.2C443.6 99.8133 344.386 0.599609 222 0.599609C99.6136 0.599609 0.399902 99.8133 0.399902 222.2C0.399902 344.586 99.6136 443.8 222 443.8Z" fill="#DF1C4D"/>
<path d="M272 56.8001C293.8 63.5001 310.2 89.0001 321.8 117.2C333.3 145.3 340.1 176.2 330.6 199.6C321.1 223 295.4 239.1 278.8 268C262.1 296.9 254.5 338.6 234.8 354.8C215.1 371 183.4 361.5 164.3 338.8C145.3 316 139.1 279.9 121 255.7C102.9 231.6 72.9 219.4 54.2 194.1C35.5 168.8 28 130.4 41.9 105.8C55.7 81.2001 90.7 70.4001 119.9 67.5001C149 64.6001 172.2 69.4001 197.5 65.8001C222.8 62.2001 250.1 50.1001 272 56.8001Z" fill="#DF1C4D"/>
<path d="M314.6 287.5C308.8 268.3 317 229.5 321.9 212.3C327.8 191.8 338.1 172.3 354.1 159.7C362.6 153 375.8 145.4 386.1 150.1C400.9 156.8 400.4 176.2 400.8 190.9C401.2 207.7 424.4 207.1 424 190.2C423 151.9 408.7 114.2 368.2 124.5C342.9 130.9 323.7 152 311 177.3C308.5 162.8 312.1 140.8 314.5 132.1C319.8 113.4 331.7 98.4002 349.9 98.6002C364.8 98.8002 365.4 72.5002 350.5 72.3002C325.1 72.0002 304 91.9002 294.6 118.5C288.2 136.5 283.5 166.4 289 188.2C267.1 172.7 247.5 150.9 256.8 117.2C261.4 100.8 239.2 94.6002 234.6 110.9C228 134.6 232.3 158 243.6 177.9C254 196.1 267.1 205.8 282.7 215.5C280.3 245.6 286.3 296.2 286.3 296.2C290.7 312 307.4 329.3 324.7 332.3C363.6 339.1 395.5 303.8 399.4 261.4C400.9 244.5 377.8 245.3 376.2 262.1C374.8 277.4 368.6 291.3 356.5 299.8C345.3 307.4 332.9 308.9 319.3 304.2" fill="#FDB615"/>
<path d="M283.714 276.76L238.435 278.272L207.549 265.072L182.288 278.272L153.023 261.747L121.28 279.279L23 282L24.1439 229L121.471 233.635L138.915 251.772L169.705 235.751L208.026 253.686L233.954 233.635L284 234.945L283.714 276.76Z" fill="#FDB615"/>
<path d="M162.5 207.1L150.3 149.2L135.2 164.4L121.5 123.1L113.6 127.2L133.2 176.1L145.9 161.3L160.6 208L162.5 207.1ZM178.2 206.7L190.7 158.3L174 162.4L179.3 125.5L172 124.7L168.2 170L183 165.1L176.5 206.4L178.2 206.7ZM115.4 202L91.9998 176.5L87.2998 182.8L117.6 211.6L122.4 195.3L148.3 224.4L149.4 223L121.9 184.4L115.4 202ZM179.1 290.4L191.3 348.4L206.3 333.1L220 374.5L228 370.4L208.4 321.5L195.7 336.2L181 289.6L179.1 290.4ZM163.4 290.9L150.8 339.2L167.5 335.2L162.3 372.1L169.6 372.8L173.4 327.6L158.6 332.4L165.1 291.1L163.4 290.9Z" fill="#010101"/>
</svg>

<?xml version="1.0" encoding="utf-8"?>
<!-- Generator: Adobe Illustrator 23.1.1, SVG Export Plug-In . SVG Version: 6.00 Build 0)  -->
<svg version="1.1" id="Layer_1" xmlns="http://www.w3.org/2000/svg" xmlns:xlink="http://www.w3.org/1999/xlink" x="0px" y="0px"
	 viewBox="0 0 444 444" style="enable-background:new 0 0 444 444;" xml:space="preserve">
<style type="text/css">
	.st0{fill:#DF1C4D;}
	.st1{fill:#FDB615;}
	.st2{fill:#010101;}
</style>
<circle class="st0" cx="222" cy="222.2" r="221.6"/>
<path class="st0" d="M272,56.8c21.8,6.7,38.2,32.2,49.8,60.4c11.5,28.1,18.3,59,8.8,82.4s-35.2,39.5-51.8,68.4
	c-16.7,28.9-24.3,70.6-44,86.8s-51.4,6.7-70.5-16c-19-22.8-25.2-58.9-43.3-83.1c-18.1-24.1-48.1-36.3-66.8-61.6S28,130.4,41.9,105.8
	c13.8-24.6,48.8-35.4,78-38.3c29.1-2.9,52.3,1.9,77.6-1.7S250.1,50.1,272,56.8z"/>
<path class="st1" d="M314.6,287.5c-5.8-19.2,2.4-58,7.3-75.2c5.9-20.5,16.2-40,32.2-52.6c8.5-6.7,21.7-14.3,32-9.6
	c14.8,6.7,14.3,26.1,14.7,40.8c0.4,16.8,23.6,16.2,23.2-0.7c-1-38.3-15.3-76-55.8-65.7c-25.3,6.4-44.5,27.5-57.2,52.8
	c-2.5-14.5,1.1-36.5,3.5-45.2c5.3-18.7,17.2-33.7,35.4-33.5c14.9,0.2,15.5-26.1,0.6-26.3c-25.4-0.3-46.5,19.6-55.9,46.2
	c-6.4,18-11.1,47.9-5.6,69.7c-21.9-15.5-41.5-37.3-32.2-71c4.6-16.4-17.6-22.6-22.2-6.3c-6.6,23.7-2.3,47.1,9,67
	c10.4,18.2,23.5,27.9,39.1,37.6c-2.4,30.1,3.6,80.7,3.6,80.7c4.4,15.8,21.1,33.1,38.4,36.1c38.9,6.8,70.8-28.5,74.7-70.9
	c1.5-16.9-21.6-16.1-23.2,0.7c-1.4,15.3-7.6,29.2-19.7,37.7c-11.2,7.6-23.6,9.1-37.2,4.4"/>
<path class="st1" d="M283.8,276.6l-47.5,1.5L203.9,265l-26.5,13.1l-30.7-16.4l-33.3,17.4l-103.1,2.7l1.2-52.6l102.1,4.6l18.3,18
	l32.3-15.9l40.2,17.8l27.2-19.9l52.5,1.3L283.8,276.6z"/>
<path class="st2" d="M162.5,207.1l-12.2-57.9l-15.1,15.2l-13.7-41.3l-7.9,4.1l19.6,48.9l12.7-14.8l14.7,46.7L162.5,207.1z
	 M178.2,206.7l12.5-48.4l-16.7,4.1l5.3-36.9l-7.3-0.8l-3.8,45.3l14.8-4.9l-6.5,41.3L178.2,206.7z M115.4,202L92,176.5l-4.7,6.3
	l30.3,28.8l4.8-16.3l25.9,29.1l1.1-1.4l-27.5-38.6L115.4,202z M179.1,290.4l12.2,58l15-15.3l13.7,41.4l8-4.1l-19.6-48.9l-12.7,14.7
	L181,289.6L179.1,290.4z M163.4,290.9l-12.6,48.3l16.7-4l-5.2,36.9l7.3,0.7l3.8-45.2l-14.8,4.8l6.5-41.3L163.4,290.9z"/>
</svg>
